app/img/logo-icon.svg

<svg width="110" height="104" xmlns="http://www.w3.org/2000/svg" fill="none">

 <g>
  <title>Layer 1</title>
  <path id="svg_1" fill="white" d="m81.6744,103.11c16.8938,-9.3866 28.3256,-27.4133 28.3256,-48.11c0,-30.3757 -24.6243,-55 -55,-55c-30.3757,0 -55,24.6243 -55,55c0,20.6967 11.4318,38.7234 28.3255,48.11c-13.4386,-8.7376 -22.3255,-23.886 -22.3255,-41.11c0,-27.062 21.938,-49 49,-49c27.062,0 49,21.938 49,49c0,17.224 -8.8869,32.3725 -22.3256,41.11z"/>
  <path id="svg_2" fill="white" d="m92.9546,80.0076c2.5939,-5.4575 4.0454,-11.563 4.0454,-18.0076c0,-23.196 -18.804,-42 -42,-42c-23.196,0 -42,18.804 -42,42c0,6.4446 1.4515,12.5501 4.0454,18.0076c-0.6836,-2.8915 -1.0454,-5.9073 -1.0454,-9.0076c0,-21.5391 17.4609,-39 39,-39c21.5391,0 39,17.4609 39,39c0,3.1003 -0.3618,6.1161 -1.0454,9.0076z"/>
  <path id="svg_3" fill="white" d="m55,89c14.3594,0 26,-11.6406 26,-26c0,-5.0703 -1.4514,-9.8017 -3.9613,-13.8013c5.5403,5.6002 8.9613,13.3013 8.9613,21.8013c0,17.1208 -13.8792,31 -31,31c-17.1208,0 -31,-13.8792 -31,-31c0,-8.5 3.421,-16.2011 8.9613,-21.8013c-2.5099,3.9996 -3.9613,8.731 -3.9613,13.8013c0,14.3594 11.6406,26 26,26z"/>
  <path id="svg_4" fill="white" d="m73,63c0,9.9411 -8.0589,18 -18,18c-9.9411,0 -18,-8.0589 -18,-18c0,-9.9411 8.0589,-18 18,-18c9.9411,0 18,8.0589 18,18z"/>
  <rect id="svg_6" height="11.87482" width="55.12417" y="91.62285" x="26.74877" stroke="#ffffff" fill="#fff"/>
  <text xml:space="preserve" text-anchor="start" font-family="Noto Sans JP" font-size="13" stroke-width="0" id="svg_7" y="102.24769" x="30.87371" stroke="#ffffff" fill="#000000">Premium</text>
 </g>
</svg>

<svg width="110" height="104" viewBox="0 0 110 104" fill="none" xmlns="http://www.w3.org/2000/svg">
<path d="M81.6744 103.11C98.5682 93.7234 110 75.6967 110 55C110 24.6243 85.3757 0 55 0C24.6243 0 0 24.6243 0 55C0 75.6967 11.4318 93.7234 28.3255 103.11C14.8869 94.3724 6 79.224 6 62C6 34.938 27.938 13 55 13C82.062 13 104 34.938 104 62C104 79.224 95.1131 94.3725 81.6744 103.11Z" fill="white"/>
<path d="M92.9546 80.0076C95.5485 74.5501 97 68.4446 97 62C97 38.804 78.196 20 55 20C31.804 20 13 38.804 13 62C13 68.4446 14.4515 74.5501 17.0454 80.0076C16.3618 77.1161 16 74.1003 16 71C16 49.4609 33.4609 32 55 32C76.5391 32 94 49.4609 94 71C94 74.1003 93.6382 77.1161 92.9546 80.0076Z" fill="white"/>
<path d="M55 89C69.3594 89 81 77.3594 81 63C81 57.9297 79.5486 53.1983 77.0387 49.1987C82.579 54.7989 86 62.5 86 71C86 88.1208 72.1208 102 55 102C37.8792 102 24 88.1208 24 71C24 62.5 27.421 54.7989 32.9613 49.1987C30.4514 53.1983 29 57.9297 29 63C29 77.3594 40.6406 89 55 89Z" fill="white"/>
<path d="M73 63C73 72.9411 64.9411 81 55 81C45.0589 81 37 72.9411 37 63C37 53.0589 45.0589 45 55 45C64.9411 45 73 53.0589 73 63Z" fill="white"/>
</svg>
